blockchains/ethereum/assets/0x853d955aCEf822Db058eb8505911ED77F175b99e/logo.svg

<svg fill="none" height="250" viewBox="0 0 250 250" width="250" xmlns="http://www.w3.org/2000/svg" xmlns:xlink="http://www.w3.org/1999/xlink"><clipPath id="a"><path d="m0 0h250v250h-250z"/></clipPath><clipPath id="b"><path d="m41.6667 41.6641h166.667v166.667h-166.667z"/></clipPath><g clip-path="url(#a)"><circle cx="125" cy="125" fill="#fff" r="125"/><g clip-path="url(#b)"><path d="m183.4 161.967c2.267-3.467 4.2-7.1 5.833-10.934 3.634-8.6 5.5-17.733 5.5-27.133s-1.833-18.533-5.5-27.1333c-1.6-3.8-3.533-7.4334-5.766-10.8667l23.733-23.7333-20.4-20.4-23.7 23.7c-3.433-2.2667-7.1-4.2-10.933-5.8-8.6-3.6334-17.734-5.5-27.134-5.5s-18.533 1.8333-27.1329 5.5c-3.8334 1.6333-7.5 3.5666-10.9334 5.8333l-24.0333-24-20.3667 20.4 24 24c-2.2333 3.4333-4.1667 7.0333-5.7667 10.8333-3.6333 8.5997-5.5 17.7337-5.5 27.1337s1.8334 18.533 5.5 27.133c1.6334 3.833 3.5667 7.467 5.8 10.933l-24.8 24.8 20.4 20.4 24.8001-24.8c3.4333 2.234 7.0666 4.167 10.8666 5.767 8.6003 3.633 17.7333 5.5 27.1333 5.5s18.533-1.833 27.133-5.5c3.8-1.6 7.434-3.533 10.834-5.767l24.533 24.534 20.4-20.4zm-58.4 3.766c-6.267 0-12.2-1.366-17.567-3.833-8.9663-4.167-16.2329-11.4-20.3996-20.367-2.5-5.366-3.9-11.333-3.9-17.633 0-6.267 1.3666-12.2 3.8333-17.533 4.1334-9.0003 11.4-16.2337 20.3663-20.4337 5.367-2.5 11.334-3.9 17.667-3.9 6.3 0 12.267 1.4 17.633 3.9 8.967 4.1667 16.234 11.4334 20.367 20.3997 2.467 5.334 3.833 11.3 3.833 17.567 0 6.3-1.4 12.3-3.9 17.667-4.166 8.966-11.433 16.2-20.433 20.366-5.3 2.434-11.233 3.8-17.5 3.8z" fill="#000"/></g></g></svg>

<svg width="250" height="250" viewBox="0 0 250 250" fill="none" xmlns="http://www.w3.org/2000/svg">
<g clip-path="url(#clip0_48_12475)">
<circle cx="125" cy="125" r="125" fill="white"/>
<g clip-path="url(#clip1_48_12475)">
<path d="M183.4 161.967C185.667 158.5 187.6 154.867 189.233 151.033C192.867 142.433 194.733 133.3 194.733 123.9C194.733 114.5 192.9 105.367 189.233 96.7667C187.633 92.9667 185.7 89.3333 183.467 85.9L207.2 62.1667L186.8 41.7667L163.1 65.4667C159.667 63.2 156 61.2667 152.167 59.6667C143.567 56.0333 134.433 54.1667 125.033 54.1667C115.633 54.1667 106.5 56 97.9001 59.6667C94.0667 61.3 90.4001 63.2333 86.9667 65.5L62.9334 41.5L42.5667 61.9L66.5667 85.9C64.3334 89.3333 62.4 92.9333 60.8 96.7333C57.1667 105.333 55.3 114.467 55.3 123.867C55.3 133.267 57.1334 142.4 60.8 151C62.4334 154.833 64.3667 158.467 66.6 161.933L41.8 186.733L62.2 207.133L87.0001 182.333C90.4334 184.567 94.0667 186.5 97.8667 188.1C106.467 191.733 115.6 193.6 125 193.6C134.4 193.6 143.533 191.767 152.133 188.1C155.933 186.5 159.567 184.567 162.967 182.333L187.5 206.867L207.9 186.467L183.4 161.967ZM125 165.733C118.733 165.733 112.8 164.367 107.433 161.9C98.4667 157.733 91.2001 150.5 87.0334 141.533C84.5334 136.167 83.1334 130.2 83.1334 123.9C83.1334 117.633 84.5 111.7 86.9667 106.367C91.1001 97.3667 98.3667 90.1333 107.333 85.9333C112.7 83.4333 118.667 82.0333 125 82.0333C131.3 82.0333 137.267 83.4333 142.633 85.9333C151.6 90.1 158.867 97.3667 163 106.333C165.467 111.667 166.833 117.633 166.833 123.9C166.833 130.2 165.433 136.2 162.933 141.567C158.767 150.533 151.5 157.767 142.5 161.933C137.2 164.367 131.267 165.733 125 165.733Z" fill="black"/>
</g>
</g>
<defs>
<clipPath id="clip0_48_12475">
<rect width="250" height="250" fill="white"/>
</clipPath>
<clipPath id="clip1_48_12475">
<rect width="166.667" height="166.667" fill="white" transform="translate(41.6667 41.6641)"/>
</clipPath>
</defs>
</svg>
